apps/tokenlist/data/4217/icons/0x20c000000000000000000000048c8f36df1c9a4a.svg

<svg xmlns="http://www.w3.org/2000/svg" width="404" height="404" fill="none" viewBox="0 0 404 404">
  <path d="M404 202C404 90.4385 313.562 0 202 0C90.4385 0 0 90.4385 0 202C0 313.562 90.4385 404 202 404C313.562 404 404 313.562 404 202Z" fill="#F9F9F9"/>
  <path clip-rule="evenodd" d="M80.7652 238.772C119.593 277.601 171.908 288.238 197.613 262.533C223.318 236.827 212.679 184.513 173.852 145.685C135.023 106.857 82.7091 96.2187 57.004 121.924C31.2989 147.629 41.937 199.943 80.7652 238.772ZM101.262 243.939C135.905 270.987 175.906 277.651 190.607 258.823C205.308 239.994 189.141 202.804 154.499 175.756C119.856 148.708 79.8554 142.044 65.1547 160.873C50.4537 179.701 66.6198 216.891 101.262 243.939Z" fill="url(#paint0_dl-siusd)" fill-rule="evenodd"/>
  <path clip-rule="evenodd" d="M323.235 166.964C284.407 128.136 232.093 117.498 206.386 143.203C180.682 168.908 191.32 221.222 230.148 260.051C268.976 298.879 321.29 309.516 346.996 283.812C372.701 258.107 362.064 205.792 323.235 166.964ZM303.144 162.191C268.501 135.143 228.501 128.479 213.8 147.308C199.099 166.136 215.264 203.327 249.907 230.375C284.55 257.423 324.55 264.087 339.252 245.258C353.953 226.43 337.787 189.239 303.144 162.191Z" fill="url(#paint1_dl-siusd)" fill-rule="evenodd"/>
  <path d="M211.514 78.5511H249.841L193.414 325.446H155.086L211.514 78.5511Z" fill="#171717"/>
  <defs>
    <linearGradient gradientUnits="userSpaceOnUse" id="paint0_dl-siusd" x1="145.389" x2="167.255" y1="238.887" y2="274.415">
      <stop offset="0.0726915" stop-color="#171717"/>
      <stop offset="1" stop-color="#171717" stop-opacity="0"/>
    </linearGradient>
    <linearGradient gradientUnits="userSpaceOnUse" id="paint1_dl-siusd" x1="250.485" x2="236.745" y1="185.001" y2="131.32">
      <stop stop-color="#171717"/>
      <stop offset="1" stop-color="#171717" stop-opacity="0"/>
    </linearGradient>
  </defs>
</svg>

<svg xmlns="http://www.w3.org/2000/svg" width="404" height="404" fill="none" viewBox="0 0 404 404"><path fill="#f9f9f9" d="M404 202C404 90.439 313.562 0 202 0S0 90.439 0 202s90.439 202 202 202 202-90.438 202-202"/><path fill="url(#a)" fill-rule="evenodd" d="M80.765 238.772c38.828 38.829 91.143 49.466 116.848 23.761s15.066-78.02-23.761-116.848c-38.829-38.828-91.143-49.466-116.848-23.761s-15.067 78.019 23.761 116.848m20.497 5.167c34.643 27.048 74.644 33.712 89.345 14.884s-1.466-56.019-36.108-83.067c-34.643-27.048-74.644-33.712-89.344-14.883-14.701 18.828 1.465 56.018 36.107 83.066" clip-rule="evenodd"/><path fill="url(#b)" fill-rule="evenodd" d="M323.235 166.964c-38.828-38.828-91.142-49.466-116.849-23.761-25.704 25.705-15.066 78.019 23.762 116.848s91.142 49.465 116.848 23.761c25.705-25.705 15.068-78.02-23.761-116.848m-20.091-4.773c-34.643-27.048-74.643-33.712-89.344-14.883-14.701 18.828 1.464 56.019 36.107 83.067s74.643 33.712 89.345 14.883c14.701-18.828-1.465-56.019-36.108-83.067" clip-rule="evenodd"/><path fill="#171717" d="M211.514 78.551h38.327l-56.427 246.895h-38.328z"/><defs><linearGradient id="a" x1="145.389" x2="167.255" y1="238.887" y2="274.415" gradientUnits="userSpaceOnUse"><stop offset=".073" stop-color="#171717"/><stop offset="1" stop-color="#171717" stop-opacity="0"/></linearGradient><linearGradient id="b" x1="250.485" x2="236.745" y1="185.001" y2="131.32" gradientUnits="userSpaceOnUse"><stop stop-color="#171717"/><stop offset="1" stop-color="#171717" stop-opacity="0"/></linearGradient></defs></svg>
